X:449
T: ALS JUENGSTENS HERR MERKURIUS
N: F0840
O: Europa, Mitteleuropa, Deutschland
R: erzaehlendes Volks - Lied, Ballade; Scherz
M: 4/4
L: 1/8
K: G
D2 | G2G2G2B2 | D3DD2
D2 | c3BA3B | D2F2Gz
D2 | G2G2G2B2 | D3DD2
D2 | c3BA3B | D2F2Gz
G2 | d3cB2G2 | e3dc2
B2 | A2A2B2c2 | d3cB2
A2 | G2G2G2B2 | D3ED2
B2 | c3AF2D2 | A4Gz
A2 | G2G2G2B2 | D3ED2
B2 | c3AF2D2 | A4Gz

